storage/app/icons/phosphoricons/light/film-script-light.svg

<svg xmlns="http://www.w3.org/2000/svg" fill="currentColor" viewBox="0 0 256 256"><path d="M200 26H56a14 14 0 0 0-14 14v176a14 14 0 0 0 14 14h144a14 14 0 0 0 14-14V40a14 14 0 0 0-14-14m2 190a2 2 0 0 1-2 2H56a2 2 0 0 1-2-2V40a2 2 0 0 1 2-2h144a2 2 0 0 1 2 2ZM94 80a10 10 0 1 1-10-10 10 10 0 0 1 10 10m0 96a10 10 0 1 1-10-10 10 10 0 0 1 10 10m0-48a10 10 0 1 1-10-10 10 10 0 0 1 10 10"/></svg>

<svg xmlns="http://www.w3.org/2000/svg" viewBox="0 0 256 256" fill="currentColor"><path d="M200,26H56A14,14,0,0,0,42,40V216a14,14,0,0,0,14,14H200a14,14,0,0,0,14-14V40A14,14,0,0,0,200,26Zm2,190a2,2,0,0,1-2,2H56a2,2,0,0,1-2-2V40a2,2,0,0,1,2-2H200a2,2,0,0,1,2,2ZM94,80A10,10,0,1,1,84,70,10,10,0,0,1,94,80Zm0,96a10,10,0,1,1-10-10A10,10,0,0,1,94,176Zm0-48a10,10,0,1,1-10-10A10,10,0,0,1,94,128Z"/></svg>
